X: 1023
T: Hicaz Sazsemâîsi
C: Refik Talat Alpman
O: Turkey
F: http://compmusic.upf.edu/node/140
N: hicaz--sazsemaisi--aksaksemai----refik_talat_alpman
N: makam= hicaz
N: form= sazsemaisi
N: usul= aksaksemai = 10/8
M: 10/8
L: 1/16
K: C _7/8B ^f ^c 
Q: 1/4=108
%%MIDI tuningsystem comma53
A3/2c/ea ecA4g2 fee6  | G2FE E2(3AGA (3=BAGGF FEE4(3FEF  | 
w:  1. HANE  |   | 
D4 F2A4c2 BAB2 c2BA  | d4 d2(3ded (3cdc(3BcB AGd6  | 
w:   |   | 
=f4 fege2dfd2c.e2 .c4  | d4 dcec2BdB2AB2 G4  | 
w:  MÜLÂZİME  |   | 
A4 FAG3/2F/ GAB3/2A/ Bcdd cBAG  | \
w:   | 
gg=fe d2cB/c/ decB BAA6  | 
w:   | 
=f4 fege2dfd2c.e2 .c4  | d4 dcec2BdB2AB2 G4  | 
w:  MÜLÂZİME  |   | 
A4 FAG3/2F/ GAB3/2A/ Bcdd cBAG  | \
w:   | 
gg=fe d2cB/c/ decB BAA6  | 
w:   | 
=c4 c2c2 c_7/8dc3/2_1/4B/ ABc3dcB  | \
w:  2. HANE  | 
=c2c_1/4B BAe2 _7/8dc(3dcB BAA4^G2  | 
w:   | 
=F4 ^G2A4B3/2A/ Bcd{e}d cBA=G  | d4 d2(3ded (3cdc(3BcB AGd6  | 
w:   |   | 
=c4 c2c2 c_7/8dc3/2_1/4B/ ABc3dcB  | \
w:  2. HANE  | 
=c2c_1/4B BAe2 _7/8dc(3dcB BAA4^G2  | 
w:   | 
=F4 ^G2A4B3/2A/ Bcd{e}d cBA=G  | d4 d2(3ded (3cdc(3BcB AGd6  | 
w:   |   | 
=f4 fege2dfd2c.e2 .c4  | d4 dcec2BdB2AB2 G4  | 
w:  MÜLÂZİME  |   | 
A4 FAG3/2F/ GAB3/2A/ Bcdd cBAG  | \
w:   | 
gg=fe d2cB/c/ decB BAA6  | 
w:   | 
=f4 fege2dfd2c.e2 .c4  | d4 dcec2BdB2AB2 G4  | 
w:  MÜLÂZİME  |   | 
A4 FAG3/2F/ GAB3/2A/ Bcdd cBAG  | \
w:   | 
gg=fe d2cB/c/ decB BAA6  | 
w:   | 
e4 A2e2 edf2 feg2 fed2  | =f'e'd'=c' =bag3fa/g/f fee6  | 
w:  3. HANE  |   | 
e4 b2(3a=fa (3geg(3fdf (3ece(3dBd (3cAcBA  | 
w:   | 
d4 d2(3ded (3cdc(3BcB AGd6  | e4 A2e2 edf2 feg2 fed2  | 
w:   |  3. HANE  | 
=f'e'd'=c' =bag3fa/g/f fee6  | e4 b2(3a=fa (3geg(3fdf (3ece(3dBd (3cAcBA  | 
w:   |   | 
d4 d2(3ded (3cdc(3BcB AGd6  | =f4 fege2dfd2c.e2 .c4  | 
w:   |  MÜLÂZİME  | 
d4 dcec2BdB2AB2 G4  | A4 FAG3/2F/ GAB3/2A/ Bcdd cBAG  | 
w:   |   | 
gg=fe d2cB/c/ decB BAA6  | =f4 fege2dfd2c.e2 .c4  | 
w:   |  MÜLÂZİME  | 
d4 dcec2BdB2AB2 G4  | A4 FAG3/2F/ GAB3/2A/ Bcdd cBAG  | 
w:   |   | 
gg=fe d2cB/c/ decB BAA6  | z12  | A12  | \
w:   |  |  4. HANE  | 
A2c2e4d4  | 
w:   | 
A12  | A2d2f4d4  | e12  | d2e2g4e4  | f12  | f4e4d4  | A12  | \
w:   |   |   |   |   |   |   | 
A2c2e4c4  | A12  | A2d2f4d4  | 
w:   |   |   | 
e12  | d2b2a4^g4  | a12  | a2b2c'2c'2a4  | \
w:   |   |   |   | 
a3ga2b2a2g2  | f3ef2g2f2e2  | 
w:   |   | 
d3cd2e2f2d2  | e12  | g3fg2a2g2=f2  | e3de2=f2e2d2  | \
w:   |   |   |   | 
c2d2c2B2B2A2  | 
w:   | 
A12  | a3ga2b2a2g2  | f3ef2g2f2e2  | d3cd2e2f2d2  | e12  | \
w:   |   |   |   |   | 
g3fg2a2g2=f2  | 
w:   | 
e3de2=f2e2d2  | c2d2c2B2B2A2  | A12  | A2c2e4c4  | \
w:   |   |   |   | 
A2c2e4c4  | 
w:   | 
A2c2e4c4  | a12  | z20  | =f4 fege2dfd2c.e2 .c4  | \
w:   |   |  |  MÜLÂZİME  | 
d4 dcec2BdB2AB2 G4  | 
w:   | 
A4 FAG3/2F/ GAB3/2A/ Bcdd cBAG  | \
w:   | 
gg=fe d2cB/c/ decB BAA6  | 
w:   | 
=f4 fege2dfd2c.e2 .c4  | d4 dcec2BdB2AB2 G4  | 
w:  MÜLÂZİME  |   | 
A4 FAG3/2F/ GAB3/2A/ Bcdd cBAG  | \
w:   | 
gg=fe d2cB/c/ decB BAA6  | 
w:   | 
|


